_assets/images/flag-arkansas-hocker.svg

<?xml version="1.0" encoding="UTF-8" standalone="no"?>
<!-- Created with Inkscape (http://www.inkscape.org/) -->
<svg
   xmlns:dc="http://purl.org/dc/elements/1.1/"
   xmlns:cc="http://creativecommons.org/ns#"
   xmlns:rdf="http://www.w3.org/1999/02/22-rdf-syntax-ns#"
   xmlns:svg="http://www.w3.org/2000/svg"
   xmlns="http://www.w3.org/2000/svg"
   xmlns:sodipodi="http://sodipodi.sourceforge.net/DTD/sodipodi-0.dtd"
   xmlns:inkscape="http://www.inkscape.org/namespaces/inkscape"
   version="1.0"
   width="449.99997"
   height="300"
   id="svg548"
   sodipodi:version="0.32"
   inkscape:version="0.46"
   sodipodi:docname="arflag-hocker.svg"
   inkscape:output_extension="org.inkscape.output.svg.inkscape"
   inkscape:export-filename="C:\Documents and Settings\Zach\My Documents\ar stuff\ar-3x5.png"
   inkscape:export-xdpi="90"
   inkscape:export-ydpi="90">
  <metadata
     id="metadata2424">
    <rdf:RDF>
      <cc:Work
         rdf:about="">
        <dc:format>image/svg+xml</dc:format>
        <dc:type
           rdf:resource="http://purl.org/dc/dcmitype/StillImage" />
      </cc:Work>
    </rdf:RDF>
  </metadata>
  <sodipodi:namedview
     inkscape:window-height="667"
     inkscape:window-width="778"
     inkscape:pageshadow="2"
     inkscape:pageopacity="0.0"
     guidetolerance="10.0"
     gridtolerance="10.0"
     objecttolerance="10.0"
     borderopacity="1.0"
     bordercolor="#666666"
     pagecolor="#ffffff"
     id="base"
     showgrid="false"
     inkscape:zoom="0.93566975"
     inkscape:cx="224.99998"
     inkscape:cy="67.163227"
     inkscape:window-x="138"
     inkscape:window-y="5"
     inkscape:current-layer="svg548"
     showguides="true"
     inkscape:guide-bbox="true" />
  <defs
     id="defs550">
    <inkscape:perspective
       sodipodi:type="inkscape:persp3d"
       inkscape:vp_x="0 : 150 : 1"
       inkscape:vp_y="0 : 1000 : 0"
       inkscape:vp_z="449.99997 : 150 : 1"
       inkscape:persp3d-origin="224.99998 : 100 : 1"
       id="perspective2426" />
  </defs>
  <rect
     width="449.99997"
     height="300"
     x="0"
     y="2.5477191e-14"
     id="rect552"
     style="font-size:12px;fill:#bf0a30;fill-opacity:1;fill-rule:evenodd;stroke-width:1pt" />
  <path
     d="M 37.49998,148.84088 L 224.22459,275 L 412.49999,148.59512 L 224.22459,24.999999 L 37.49998,148.84088 z"
     id="path558"
     style="fill:#002868;fill-opacity:1;fill-rule:evenodd;stroke:none;stroke-width:3.14457989;stroke-linecap:butt;stroke-linejoin:miter;stroke-dasharray:none;stroke-opacity:1" />
  <path
     d="M 83.99998,149.12834 L 224.41689,244 L 365.99999,148.94353 L 224.41689,56 L 83.99998,149.12834 z"
     id="path2508"
     style="fill:#ffffff;fill-opacity:1;fill-rule:evenodd;stroke:none;stroke-width:3.14457989;stroke-linecap:butt;stroke-linejoin:miter;stroke-dasharray:none;stroke-opacity:1" />
  <path
     d="M 229.48396,49.981066 L 223.96299,45.981502 L 218.45203,50 L 220.54659,43.508953 L 215.02499,39.505124 L 221.84047,39.493001 L 223.9389,33 L 226.0565,39.483554 L 232.87499,39.474488 L 227.36831,43.49367 L 229.48396,49.981066 z"
     id="polygon560"
     style="font-size:12px;fill:#ffffff;fill-opacity:1;fill-rule:evenodd;stroke:none;stroke-width:0.625;stroke-dasharray:none;stroke-dashoffset:5;stroke-opacity:1" />
  <path
     d="M 82.01893,135.60897 L 86.0185,130.088 L 82,124.57704 L 88.49104,126.6716 L 92.49487,121.15 L 92.50699,127.96548 L 99.000004,130.0639 L 92.51644,132.18151 L 92.52551,139 L 88.50633,133.49332 L 82.01893,135.60897 z"
     id="path3256"
     style="font-size:12px;fill:#ffffff;fill-opacity:1;fill-rule:evenodd;stroke:none;stroke-width:0.625;stroke-dasharray:none;stroke-dashoffset:5;stroke-opacity:1" />
  <path
     d="M 109.01893,117.60897 L 113.0185,112.088 L 109,106.57704 L 115.49104,108.6716 L 119.49487,103.15 L 119.50699,109.96548 L 126,112.0639 L 119.51644,114.18151 L 119.52551,121 L 115.50633,115.49332 L 109.01893,117.60897 z"
     id="path3254"
     style="font-size:12px;fill:#ffffff;fill-opacity:1;fill-rule:evenodd;stroke:none;stroke-width:0.625;stroke-dasharray:none;stroke-dashoffset:5;stroke-opacity:1" />
  <path
     d="M 190.01893,64.60897 L 194.0185,59.088 L 190,53.57704 L 196.49104,55.6716 L 200.49487,50.15 L 200.50699,56.96548 L 207,59.0639 L 200.51644,61.18151 L 200.52551,68 L 196.50633,62.49332 L 190.01893,64.60897 z"
     id="path3445"
     style="font-size:12px;fill:#ffffff;fill-opacity:1;fill-rule:evenodd;stroke:none;stroke-width:0.625;stroke-dasharray:none;stroke-dashoffset:5;stroke-opacity:1" />
  <path
     d="M 163.01893,82.60897 L 167.0185,77.088 L 163,71.57704 L 169.49104,73.6716 L 173.49487,68.15 L 173.50699,74.96548 L 180,77.0639 L 173.51644,79.18151 L 173.52551,86 L 169.50633,80.49332 L 163.01893,82.60897 z"
     id="path3447"
     style="font-size:12px;fill:#ffffff;fill-opacity:1;fill-rule:evenodd;stroke:none;stroke-width:0.625;stroke-dasharray:none;stroke-dashoffset:5;stroke-opacity:1" />
  <path
     d="M 136.01893,99.60897 L 140.0185,94.088 L 136,88.57704 L 142.49104,90.6716 L 146.49487,85.15 L 146.50699,91.96548 L 153,94.0639 L 146.51644,96.18151 L 146.52551,103 L 142.50633,97.49332 L 136.01893,99.60897 z"
     id="path3451"
     style="font-size:12px;fill:#ffffff;fill-opacity:1;fill-rule:evenodd;stroke:none;stroke-width:0.625;stroke-dasharray:none;stroke-dashoffset:5;stroke-opacity:1" />
  <path
     d="M 82.01893,135.60897 L 86.0185,130.088 L 82,124.57704 L 88.49104,126.6716 L 92.49487,121.15 L 92.50699,127.96548 L 99.000004,130.0639 L 92.51644,132.18151 L 92.52551,139 L 88.50633,133.49332 L 82.01893,135.60897 z"
     id="path3481"
     style="font-size:12px;fill:#ffffff;fill-opacity:1;fill-rule:evenodd;stroke:none;stroke-width:0.625;stroke-dasharray:none;stroke-dashoffset:5;stroke-opacity:1" />
  <path
     d="M 340.45883,117.60897 L 336.45926,112.088 L 340.47776,106.57704 L 333.98672,108.6716 L 329.98289,103.15 L 329.97077,109.96548 L 323.47776,112.0639 L 329.96132,114.18151 L 329.95225,121 L 333.97143,115.49332 L 340.45883,117.60897 z"
     id="path3533"
     style="font-size:12px;fill:#ffffff;fill-opacity:1;fill-rule:evenodd;stroke:none;stroke-width:0.625;stroke-dasharray:none;stroke-dashoffset:5;stroke-opacity:1" />
  <path
     d="M 259.45883,64.60897 L 255.45926,59.088 L 259.47776,53.57704 L 252.98672,55.6716 L 248.98289,50.15 L 248.97077,56.96548 L 242.47776,59.0639 L 248.96132,61.18151 L 248.95225,68 L 252.97143,62.49332 L 259.45883,64.60897 z"
     id="path3535"
     style="font-size:12px;fill:#ffffff;fill-opacity:1;fill-rule:evenodd;stroke:none;stroke-width:0.625;stroke-dasharray:none;stroke-dashoffset:5;stroke-opacity:1" />
  <path
     d="M 286.45883,82.60897 L 282.45926,77.088 L 286.47776,71.57704 L 279.98672,73.6716 L 275.98289,68.15 L 275.97077,74.96548 L 269.47776,77.0639 L 275.96132,79.18151 L 275.95225,86 L 279.97143,80.49332 L 286.45883,82.60897 z"
     id="path3537"
     style="font-size:12px;fill:#ffffff;fill-opacity:1;fill-rule:evenodd;stroke:none;stroke-width:0.625;stroke-dasharray:none;stroke-dashoffset:5;stroke-opacity:1" />
  <path
     d="M 313.45883,99.60897 L 309.45926,94.088 L 313.47776,88.57704 L 306.98672,90.6716 L 302.98289,85.15 L 302.97077,91.96548 L 296.47776,94.0639 L 302.96132,96.18151 L 302.95225,103 L 306.97143,97.49332 L 313.45883,99.60897 z"
     id="path3539"
     style="font-size:12px;fill:#ffffff;fill-opacity:1;fill-rule:evenodd;stroke:none;stroke-width:0.625;stroke-dasharray:none;stroke-dashoffset:5;stroke-opacity:1" />
  <path
     d="M 367.45883,135.60897 L 363.45926,130.088 L 367.47776,124.57704 L 360.98672,126.6716 L 356.98289,121.15 L 356.97077,127.96548 L 350.47776,130.0639 L 356.96132,132.18151 L 356.95225,139 L 360.97143,133.49332 L 367.45883,135.60897 z"
     id="path3541"
     style="font-size:12px;fill:#ffffff;fill-opacity:1;fill-rule:evenodd;stroke:none;stroke-width:0.625;stroke-dasharray:none;stroke-dashoffset:5;stroke-opacity:1" />
  <path
     d="M 71.98107,144.46603 L 67.9815,149.987 L 72,155.49796 L 65.50896,153.4034 L 61.50513,158.925 L 61.49301,152.10952 L 55,150.0111 L 61.48356,147.89349 L 61.47449,141.075 L 65.49367,146.58168 L 71.98107,144.46603 z"
     id="path3214"
     style="font-size:12px;fill:#ffffff;fill-opacity:1;fill-rule:evenodd;stroke:none;stroke-width:0.625;stroke-dasharray:none;stroke-dashoffset:5;stroke-opacity:1" />
  <path
     d="M 95.98107,161.54103 L 91.9815,167.062 L 96,172.57296 L 89.50896,170.4784 L 85.50513,176 L 85.49301,169.18452 L 79,167.0861 L 85.48356,164.96849 L 85.47449,158.15 L 89.49367,163.65668 L 95.98107,161.54103 z"
     id="path3281"
     style="font-size:12px;fill:#ffffff;fill-opacity:1;fill-rule:evenodd;stroke:none;stroke-width:0.625;stroke-dasharray:none;stroke-dashoffset:5;stroke-opacity:1" />
  <path
     d="M 167.98107,210.54103 L 163.9815,216.062 L 168,221.57296 L 161.50896,219.4784 L 157.50513,225 L 157.49301,218.18452 L 151,216.0861 L 157.48356,213.96849 L 157.47449,207.15 L 161.49367,212.65668 L 167.98107,210.54103 z"
     id="path3631"
     style="font-size:12px;fill:#ffffff;fill-opacity:1;fill-rule:evenodd;stroke:none;stroke-width:0.625;stroke-dasharray:none;stroke-dashoffset:5;stroke-opacity:1" />
  <path
     d="M 143.98107,193.54103 L 139.9815,199.062 L 144,204.57296 L 137.50896,202.4784 L 133.50513,208 L 133.49301,201.18452 L 127,199.0861 L 133.48356,196.96849 L 133.47449,190.15 L 137.49367,195.65668 L 143.98107,193.54103 z"
     id="path3633"
     style="font-size:12px;fill:#ffffff;fill-opacity:1;fill-rule:evenodd;stroke:none;stroke-width:0.625;stroke-dasharray:none;stroke-dashoffset:5;stroke-opacity:1" />
  <path
     d="M 119.98107,177.54103 L 115.9815,183.062 L 120,188.57296 L 113.50896,186.4784 L 109.50513,192 L 109.49301,185.18452 L 103,183.0861 L 109.48356,180.96849 L 109.47449,174.15 L 113.49367,179.65668 L 119.98107,177.54103 z"
     id="path3639"
     style="font-size:12px;fill:#ffffff;fill-opacity:1;fill-rule:evenodd;stroke:none;stroke-width:0.625;stroke-dasharray:none;stroke-dashoffset:5;stroke-opacity:1" />
  <path
     d="M 191.98107,226.54103 L 187.9815,232.062 L 192,237.57296 L 185.50896,235.4784 L 181.50513,241 L 181.49301,234.18452 L 175,232.0861 L 181.48356,229.96849 L 181.47449,223.15 L 185.49367,228.65668 L 191.98107,226.54103 z"
     id="path3649"
     style="font-size:12px;fill:#ffffff;fill-opacity:1;fill-rule:evenodd;stroke:none;stroke-width:0.625;stroke-dasharray:none;stroke-dashoffset:5;stroke-opacity:1" />
  <path
     d="M 215.98107,243.54103 L 211.9815,249.062 L 216,254.57296 L 209.50896,252.4784 L 205.50513,258 L 205.49301,251.18452 L 199,249.0861 L 205.48356,246.96849 L 205.47449,240.15 L 209.49367,245.65668 L 215.98107,243.54103 z"
     id="path3655"
     style="font-size:12px;fill:#ffffff;fill-opacity:1;fill-rule:evenodd;stroke:none;stroke-width:0.625;stroke-dasharray:none;stroke-dashoffset:5;stroke-opacity:1" />
  <path
     d="M 377.01893,144.46603 L 381.0185,149.987 L 377,155.49796 L 383.49104,153.4034 L 387.49487,158.925 L 387.50699,152.10952 L 394,150.0111 L 387.51644,147.89349 L 387.52551,141.075 L 383.50633,146.58168 L 377.01893,144.46603 z"
     id="path3543"
     style="font-size:12px;fill:#ffffff;fill-opacity:1;fill-rule:evenodd;stroke:none;stroke-width:0.625;stroke-dasharray:none;stroke-dashoffset:5;stroke-opacity:1" />
  <path
     d="M 353.01893,161.54103 L 357.0185,167.062 L 353,172.57296 L 359.49104,170.4784 L 363.49487,176 L 363.50699,169.18452 L 370,167.0861 L 363.51644,164.96849 L 363.52551,158.15 L 359.50633,163.65668 L 353.01893,161.54103 z"
     id="path3682"
     style="font-size:12px;fill:#ffffff;fill-opacity:1;fill-rule:evenodd;stroke:none;stroke-width:0.625;stroke-dasharray:none;stroke-dashoffset:5;stroke-opacity:1" />
  <path
     d="M 281.01893,210.54103 L 285.0185,216.062 L 281,221.57296 L 287.49104,219.4784 L 291.49487,225 L 291.50699,218.18452 L 298,216.0861 L 291.51644,213.96849 L 291.52551,207.15 L 287.50633,212.65668 L 281.01893,210.54103 z"
     id="path3686"
     style="font-size:12px;fill:#ffffff;fill-opacity:1;fill-rule:evenodd;stroke:none;stroke-width:0.625;stroke-dasharray:none;stroke-dashoffset:5;stroke-opacity:1" />
  <path
     d="M 305.01893,193.54103 L 309.0185,199.062 L 305,204.57296 L 311.49104,202.4784 L 315.49487,208 L 315.50699,201.18452 L 322,199.0861 L 315.51644,196.96849 L 315.52551,190.15 L 311.50633,195.65668 L 305.01893,193.54103 z"
     id="path3688"
     style="font-size:12px;fill:#ffffff;fill-opacity:1;fill-rule:evenodd;stroke:none;stroke-width:0.625;stroke-dasharray:none;stroke-dashoffset:5;stroke-opacity:1" />
  <path
     d="M 329.01893,177.54103 L 333.0185,183.062 L 329,188.57296 L 335.49104,186.4784 L 339.49487,192 L 339.50699,185.18452 L 346,183.0861 L 339.51644,180.96849 L 339.52551,174.15 L 335.50633,179.65668 L 329.01893,177.54103 z"
     id="path3690"
     style="font-size:12px;fill:#ffffff;fill-opacity:1;fill-rule:evenodd;stroke:none;stroke-width:0.625;stroke-dasharray:none;stroke-dashoffset:5;stroke-opacity:1" />
  <path
     d="M 257.01893,226.54103 L 261.0185,232.062 L 257,237.57296 L 263.49104,235.4784 L 267.49487,241 L 267.50699,234.18452 L 274,232.0861 L 267.51644,229.96849 L 267.52551,223.15 L 263.50633,228.65668 L 257.01893,226.54103 z"
     id="path3692"
     style="font-size:12px;fill:#ffffff;fill-opacity:1;fill-rule:evenodd;stroke:none;stroke-width:0.625;stroke-dasharray:none;stroke-dashoffset:5;stroke-opacity:1" />
  <path
     d="M 233.01893,243.54103 L 237.0185,249.062 L 233,254.57296 L 239.49104,252.4784 L 243.49487,258 L 243.50699,251.18452 L 250,249.0861 L 243.51644,246.96849 L 243.52551,240.15 L 239.50633,245.65668 L 233.01893,243.54103 z"
     id="path3694"
     style="font-size:12px;fill:#ffffff;fill-opacity:1;fill-rule:evenodd;stroke:none;stroke-width:0.625;stroke-dasharray:none;stroke-dashoffset:5;stroke-opacity:1" />
  <path
     d="M 212.42723,170 L 225.71321,160.55849 L 239.01449,169.99152 L 233.93465,154.72172 L 247.22219,145.27017 L 230.79665,145.2744 L 225.70749,130 L 220.63595,145.27244 L 204.20316,145.28388 L 217.49411,154.71852 L 212.42723,170 z"
     id="path2448"
     style="font-size:12px;fill:#002868;fill-opacity:1;fill-rule:evenodd;stroke:none;stroke-width:0.625;stroke-dasharray:none;stroke-dashoffset:5;stroke-opacity:1" />
  <path
     style="font-size:12px;fill:#002868;fill-opacity:1;fill-rule:evenodd;stroke:none;stroke-width:0.625;stroke-dasharray:none;stroke-dashoffset:5;stroke-opacity:1"
     id="path2486"
     d="M 279.22407,170 L 292.51005,160.55849 L 305.81133,169.99152 L 300.73149,154.72172 L 314.01903,145.27017 L 297.59349,145.2744 L 292.50433,130 L 287.43279,145.27244 L 271,145.28388 L 284.29095,154.71852 L 279.22407,170 z" />
  <path
     d="M 143.22407,170 L 156.51004,160.55849 L 169.81132,169.99152 L 164.73148,154.72172 L 178.01903,145.27017 L 161.59348,145.2744 L 156.50433,130 L 151.43279,145.27244 L 135,145.28388 L 148.29095,154.71852 L 143.22407,170 z"
     id="path2488"
     style="font-size:12px;fill:#002868;fill-opacity:1;fill-rule:evenodd;stroke:none;stroke-width:0.625;stroke-dasharray:none;stroke-dashoffset:5;stroke-opacity:1" />
</svg>

<svg xmlns="http://www.w3.org/2000/svg" version="1.0" width="450" height="300"><path font-size="12" fill="#bf0a30" fill-rule="evenodd" d="M0 0h450v300H0z"/><path d="M37.5 148.84L224.225 275 412.5 148.595 224.225 25 37.5 148.84z" fill="#002868" fill-rule="evenodd"/><path d="M84 149.128L224.417 244 366 148.944 224.417 56 84 149.128z" fill="#fff" fill-rule="evenodd"/><path d="M229.484 49.981l-5.521-4L218.452 50l2.095-6.491-5.522-4.004 6.815-.012L223.94 33l2.118 6.484 6.818-.01-5.507 4.02 2.116 6.487zM82.019 135.609l4-5.521L82 124.577l6.491 2.095 4.004-5.522.012 6.815L99 130.064l-6.484 2.118.01 6.818-4.02-5.507-6.487 2.116zM109.019 117.609l4-5.521-4.019-5.511 6.491 2.095 4.004-5.522.012 6.815 6.493 2.099-6.484 2.118.01 6.818-4.02-5.507-6.487 2.116zM190.019 64.609l4-5.521L190 53.577l6.491 2.095 4.004-5.522.012 6.815L207 59.064l-6.484 2.118.01 6.818-4.02-5.507-6.487 2.116zM163.019 82.609l4-5.521L163 71.577l6.491 2.095 4.004-5.522.012 6.815L180 77.064l-6.484 2.118.01 6.818-4.02-5.507-6.487 2.116zM136.019 99.609l4-5.521L136 88.577l6.491 2.095 4.004-5.522.012 6.815L153 94.064l-6.484 2.118.01 6.818-4.02-5.507-6.487 2.116z" font-size="12" fill="#fff" fill-rule="evenodd"/><path d="M82.019 135.609l4-5.521L82 124.577l6.491 2.095 4.004-5.522.012 6.815L99 130.064l-6.484 2.118.01 6.818-4.02-5.507-6.487 2.116zM340.459 117.609l-4-5.521 4.019-5.511-6.491 2.095-4.004-5.522-.012 6.815-6.493 2.099 6.483 2.118-.009 6.818 4.02-5.507 6.487 2.116zM259.459 64.609l-4-5.521 4.019-5.511-6.491 2.095-4.004-5.522-.012 6.815-6.493 2.099 6.483 2.118-.009 6.818 4.02-5.507 6.487 2.116zM286.459 82.609l-4-5.521 4.019-5.511-6.491 2.095-4.004-5.522-.012 6.815-6.493 2.099 6.483 2.118-.009 6.818 4.02-5.507 6.487 2.116zM313.459 99.609l-4-5.521 4.019-5.511-6.491 2.095-4.004-5.522-.012 6.815-6.493 2.099 6.483 2.118-.009 6.818 4.02-5.507 6.487 2.116zM367.459 135.609l-4-5.521 4.019-5.511-6.491 2.095-4.004-5.522-.012 6.815-6.493 2.099 6.483 2.118-.009 6.818 4.02-5.507 6.487 2.116zM71.981 144.466l-4 5.521L72 155.498l-6.491-2.095-4.004 5.522-.012-6.815L55 150.01l6.484-2.118-.01-6.818 4.02 5.507 6.487-2.116zM95.981 161.541l-4 5.521L96 172.573l-6.491-2.095L85.505 176l-.012-6.815L79 167.086l6.484-2.118-.01-6.818 4.02 5.507 6.487-2.116zM167.981 210.541l-4 5.521 4.019 5.511-6.491-2.095-4.004 5.522-.012-6.815-6.493-2.099 6.484-2.118-.01-6.818 4.02 5.507 6.487-2.116zM143.981 193.541l-4 5.521 4.019 5.511-6.491-2.095-4.004 5.522-.012-6.815-6.493-2.099 6.484-2.118-.01-6.818 4.02 5.507 6.487-2.116zM119.981 177.541l-4 5.521 4.019 5.511-6.491-2.095-4.004 5.522-.012-6.815-6.493-2.099 6.484-2.118-.01-6.818 4.02 5.507 6.487-2.116zM191.981 226.541l-4 5.521 4.019 5.511-6.491-2.095-4.004 5.522-.012-6.815-6.493-2.099 6.484-2.118-.01-6.818 4.02 5.507 6.487-2.116zM215.981 243.541l-4 5.521 4.019 5.511-6.491-2.095-4.004 5.522-.012-6.815-6.493-2.099 6.484-2.118-.01-6.818 4.02 5.507 6.487-2.116zM377.019 144.466l4 5.521-4.019 5.511 6.491-2.095 4.004 5.522.012-6.815L394 150.01l-6.484-2.118.01-6.818-4.02 5.507-6.487-2.116zM353.019 161.541l4 5.521-4.019 5.511 6.491-2.095 4.004 5.522.012-6.815 6.493-2.099-6.484-2.118.01-6.818-4.02 5.507-6.487-2.116zM281.019 210.541l4 5.521-4.019 5.511 6.491-2.095 4.004 5.522.012-6.815 6.493-2.099-6.484-2.118.01-6.818-4.02 5.507-6.487-2.116zM305.019 193.541l4 5.521-4.019 5.511 6.491-2.095 4.004 5.522.012-6.815 6.493-2.099-6.484-2.118.01-6.818-4.02 5.507-6.487-2.116zM329.019 177.541l4 5.521-4.019 5.511 6.491-2.095 4.004 5.522.012-6.815 6.493-2.099-6.484-2.118.01-6.818-4.02 5.507-6.487-2.116zM257.019 226.541l4 5.521-4.019 5.511 6.491-2.095 4.004 5.522.012-6.815 6.493-2.099-6.484-2.118.01-6.818-4.02 5.507-6.487-2.116zM233.019 243.541l4 5.521-4.019 5.511 6.491-2.095 4.004 5.522.012-6.815 6.493-2.099-6.484-2.118.01-6.818-4.02 5.507-6.487-2.116z" font-size="12" fill="#fff" fill-rule="evenodd"/><path d="M212.427 170l13.286-9.442 13.301 9.434-5.08-15.27 13.288-9.452-16.425.004-5.09-15.274-5.071 15.272-16.433.012 13.291 9.435L212.427 170zM279.224 170l13.286-9.442 13.301 9.434-5.08-15.27 13.288-9.452-16.426.004L292.504 130l-5.071 15.272-16.433.012 13.291 9.435L279.224 170zM143.224 170l13.286-9.442 13.301 9.434-5.08-15.27 13.288-9.452-16.426.004L156.504 130l-5.071 15.272-16.433.012 13.291 9.435L143.224 170z" font-size="12" fill="#002868" fill-rule="evenodd"/></svg>
